!!!!SEGMENT: pl-kk--kk-i-1--050_anonim--salve-sancta-parens.krn
!!!cenid: 15xx:770
!!!COM: Anonim
!!!COM-rismID: pe30004985
!!!CDT:
!!!CNT:
!!!OTL: Salve Sancta parens
!!!PDT:
!!!AGN:
!!!SMS-siglum: PL-Kk
!!!SMS-shelfmark: Kk.I.1
!!!SMS-shelfwork: 050 W
!!!SMS-variant:
!!!SMS-altvar:
!!!NIFC-rismSourceID: 300257954
!!!NIFC-rismChildID: 300258004
!!!NIFC-islandoraID: pl-kk:1
!!!URL-pdf-islandora: https://repozytorium.nifc.pl/islandora/object/pl-kk%3A1/datastream/PDF/view
!!!URL-scan: https://polish.musicsources.pl/pl/lokalizacje/galeria/rekopisy/5736 @EN{Scan on Polish Music Sources Website} @PL{Skany w portalu Dziedzictwo Muzyki Polskiej w otwartym dostępie}
!!!IIIF: https://repozytorium.nifc.pl/islandora/object/pl-kk%3A1/datastream/IIIF/view
!!!ONB-nifc: UWAGA: Cantus (s. 160v-161r, skan 0163), Altus (s. 156r-157r, skan 0349-0350), Tenor (s. 136r-v, skan 0526-0527), Bassus (s. 146v-147r, skan 0709).
!!!AIN: 1 alto 1 bass 1 soprn 1 tenor 1 vox
!!!key: a
**kern	**text	**kern	**neume	**text	**kern	**kern	**text	**kern	**text
*part5	*part5	*part4	*part4	*part4	*part3	*part2	*part2	*part1	*part1
*staff5	*staff5	*staff4	*	*staff4	*staff3	*staff2	*staff2	*staff1	*staff1
*I"BASSVS	*	*I"TENOR	*	*	*I"[QVINTVS]	*I"ALTVS	*	*I"CANTVS	*
*I'B	*	*I'T	*	*	*I'[Q]	*I'A	*	*I'S	*
*ICvox	*	*ICvox	*	*	*ICvox	*ICvox	*	*ICvox	*
*Ibass	*	*Itenor	*	*	*Ivox	*Ialto	*	*Isoprn	*
*clefF4	*	*clefC4	*	*	*clefC4	*clefC3	*	*clefC3	*
*k[]	*	*k[]	*	*	*k[]	*k[]	*	*k[]	*
*a:	*	*a:	*	*	*a:	*a:	*	*a:	*
*M2/1	*	*M2/1	*	*	*M2/1	*M2/1	*	*M2/1	*
*met(C|)	*	*met(C|)	*	*	*met(C|)	*met(C|)	*	*met(C|)	*
=1	=1	=1	=1	=1	=1	=1	=1	=1	=1
*xywh-#709:1511,1411,4280,980	*	*xywh-#526:5897,1351,4518,971	*	*	*	*xywh-#349:5886,2233,4613,1006	*	*xywh-#163:1414,544,4388,1050	*
!	!	!LO:TX:a:i:t=Quinq(ue)\nVocum.	!	!	!	!	!	!	!
!LO:TX:t=P:sześciolinia:problem	!	!LO:TX:t=P:sześciolinia:problem	!	!	!	!	!	!	!
*	*	*lig	*	*	*	*	*	*	*
!	!	!	!	!	!LO:TX:t=P:problem=głosu Quintus nie ma w Kk I.1	!LO:TX:t=P:sześciolinia:problem	!	!LO:TX:t=P:sześciolinia:problem	!
0r	.	1E	.	Sal-	0ryy	0r	.	1r	.
.	.	1G	.	.	.	.	.	2.g\	Sal-
.	.	.	.	.	.	.	.	4f\	.
*	*	*Xlig	*	*	*	*	*	*	*
=2	=2	=2	=2	=2	=2	=2	=2	=2	=2
*	*	*lig	*	*	*	*	*	*	*
0r	.	1A	.	.	0ryy	2.e\	Sal-	4e\	.
.	.	.	.	.	.	.	.	4d\	.
.	.	.	.	.	.	.	.	4c\	.
.	.	.	.	.	.	4d\	.	4d\	.
.	.	1c	.	.	.	4c\	.	2e\	.
.	.	.	.	.	.	4B\	.	.	.
.	.	.	.	.	.	2.A/	.	1c	-ue
*	*	*Xlig	*	*	*	*	*	*	*
=3	=3	=3	=3	=3	=3	=3	=3	=3	=3
2r	.	1A	.	-ue	0ryy	.	.	.	.
.	.	.	.	.	.	4G/	.	.	.
2.A\	Sal-	.	.	.	.	4A/	.	2f\	ſanc-
.	.	.	.	.	.	4B/	.	.	.
.	.	1A	.	ſanc-	.	4c/	.	2e\	.
4G\	.	.	.	.	.	4B/	.	.	.
4F\	.	.	.	.	.	4A/	.	2.f\	-ta
4E\	.	.	.	.	.	4G/	.	.	.
=4	=4	=4	=4	=4	=4	=4	=4	=4	=4
*	*	*lig	*	*	*	*	*	*	*
2.D/	.	1A	.	-ta	0ryy	2F/	.	.	.
.	.	.	.	.	.	.	.	4e\	.
.	.	.	.	.	.	2F/	-ue	2.d\	pa-
4C/	.	.	.	.	.	.	.	.	.
4BB-X/	.	1G	.	.	.	1B-X	ſanc-	.	.
4AA/	.	.	.	.	.	.	.	4c\	.
2GG/	.	.	.	.	.	.	.	4d\	.
.	.	.	.	.	.	.	.	4e\	.
*	*	*Xlig	*	*	*	*	*	*	*
=5	=5	=5	=5	=5	=5	=5	=5	=5	=5
*	*	*lig	*	*	*	*	*	*	*
1D	-ue	1A	.	pa-	0ryy	2A/	.	1f	-renſ
.	.	.	.	.	.	2.A/	-ta	.	.
2G\	ſanc-	1B	.	.	.	.	.	1r	.
.	.	.	.	.	.	8G/L	pa-	.	.
.	.	.	.	.	.	8F/J	.	.	.
2G\	-ta	.	.	.	.	2G/	.	.	.
*	*	*Xlig	*	*	*	*	*	*	*
=6	=6	=6	=6	=6	=6	=6	=6	=6	=6
1.F	pa-	1c	.	.	0ryy	2.A/	.	1r	.
.	.	.	.	.	.	4B\	.	.	.
*	*	*lig	*	*	*	*	*	*	*
.	.	1A	.	.	.	4c\	.	1c	Sal-
.	.	.	.	.	.	4d\	.	.	.
2F\	-rens	.	.	.	.	2.c\	.	.	.
=7	=7	=7	=7	=7	=7	=7	=7	=7	=7
1r	.	1G	.	.	0ryy	.	.	1g	.
.	.	.	.	.	.	8B/L	.	.	.
*	*	*	*	*	*	*custos:B	*	*	*
.	.	.	.	.	.	8A/J	.	.	.
!	!	!	!	!	!	!LO:LB:g=original	!	!	!
*	*	*	*	*	*	*	*	*	*
*	*	*	*	*	*	*xywh-#349:5875,3118,4613,953	*	*	*
.	.	.	.	.	.	2B\	.	.	.
*	*	*	*	*	*	*	*	*	*
*	*	*Xlig	*	*	*	*	*	*	*
2.AA/	pa-	1A	.	-rens	.	1c	-rens	2e\	-ue
.	.	.	.	.	.	.	.	2.e\	ſanc-
4BB/	.	.	.	.	.	.	.	.	.
!	!	!	!	!	!	!	!	!	!
=8	=8	=8	=8	=8	=8	=8	=8	=8	=8
*	*	*	*	*	*	*	*	*	*
*	*	*lig	*	*	*	*	*	*	*
4C/	.	1G	.	e-	0ryy	0r	.	.	.
4D/	.	.	.	.	.	.	.	4f\	.
2E\	.	.	.	.	.	.	.	2.g\	-ta
1D	.	1A	.	.	.	.	.	.	.
.	.	.	.	.	.	.	.	8f\L	.
.	.	.	.	.	.	.	.	8e\J	.
*	*	*	*	*	*	*	*	*custos:g	*
.	.	.	.	.	.	.	.	2f\	pa-
*	*	*Xlig	*	*	*	*	*	*	*
!	!	!	!	!	!	!	!	!LO:LB:g=original	!
=9	=9	=9	=9	=9	=9	=9	=9	=9	=9
*	*	*	*	*	*	*	*	*xywh-#163:1377,1499,4468,976	*
*	*	*lig	*	*	*	*	*	*	*
2C/	-rens	1c	.	-ni-	0ryy	2r	.	2g\	-rens
*custos:G	*	*	*	*	*	*	*	*	*
2C/	e-	.	.	.	.	2G/	e-	2e\	e-
*	*	*custos:c	*	*	*	*	*	*	*
!LO:LB:g=original	!	!	!	!	!	!	!	!	!
*xywh-#709:1390,2313,4448,896	*	*	*	*	*	*	*	*	*
1G	ni ­-	1d	.	.	.	1G	-ni-	1d	-ni-
!	!	!LO:LB:g=original	!	!	!	!	!	!	!
*	*	*Xlig	*	*	*	*	*	*	*
=10	=10	=10	=10	=10	=10	=10	=10	=10	=10
*	*	*xywh-#526:5875,2166,4627,980	*	*	*	*	*	*	*
1C	-xa	1c	.	-xa	0ryy	1G	-xa	1e	-xa
2r	.	1c	.	pu-	.	2r	.	2r	.
1C	pu-	.	.	.	.	1G	pu-	1e	pu-
=11	=11	=11	=11	=11	=11	=11	=11	=11	=11
.	.	1c	.	-er-	0ryy	.	.	.	.
2C/	-er-	.	.	.	.	1G	-er-	2e\	-er-
1C	-pe-	1c	.	-pe-	.	.	.	1e	-pe-
.	.	.	.	.	.	2G/	-pe-	.	.
=12	=12	=12	=12	=12	=12	=12	=12	=12	=12
*	*	*lig	*	*	*	*	*	*	*
1C	-ra-	1c	.	-ra	0ryy	2G/	-ra	1e	-ra
.	.	.	.	.	.	2.c\	.	.	.
1GG	-re-	1d	.	.	.	.	.	1g	re-
.	.	.	.	.	.	8B/L	re-	.	.
.	.	.	.	.	.	8A/J	.	.	.
.	.	.	.	.	.	2B/	-gem	.	.
*	*	*Xlig	*	*	*	*	*	*	*
=13	=13	=13	=13	=13	=13	=13	=13	=13	=13
1C	-gem	1c	.	.	0ryy	1c	.	1e	-ge(m)
*	*	*lig	*	*	*	*	*	*	*ij
2r	.	1c	.	re-	.	2r	.	2r	.
2AA/	pu-	.	.	.	.	2A/	pu-	1e	pu-
=14	=14	=14	=14	=14	=14	=14	=14	=14	=14
2.E\	-er-	1B	.	.	0ryy	2.G/	-er-	.	.
.	.	.	.	.	.	.	.	2e\	-er-
4E\	-pe-	.	.	.	.	4G/	-pe-	.	.
*	*	*Xlig	*	*	*	*	*	*	*
*	*	*lig	*	*	*	*	*	*	*
2A\	-ra	1A	.	.	.	2E/	-ra	2c/	-pe-
*	*ij	*	*	*	*	*	*	*	*
2F\	pu-	.	.	.	.	2.A/	.	2d\	.
=15	=15	=15	=15	=15	=15	=15	=15	=15	=15
2.E\	-er-	1B	.	.	0ryy	.	.	1e	.
.	.	.	.	.	.	8G/L	re-	.	.
.	.	.	.	.	.	8F/J	.	.	.
.	.	.	.	.	.	2G#X/	-gem	.	.
4E\	-pe-	.	.	.	.	.	.	.	.
!	!	!	!	!	!	!LO:TX:t=P:problem=# below	!	!	!
*	*	*Xlig	*	*	*	*	*	*	*
*	*	*lig	*	*	*	*	*	*	*
1AA	-ra	1c	.	-gem	.	0A	.	2e\	-ra
*	*Xij	*	*	*	*	*	*	*	*Xij
.	.	.	.	.	.	.	.	2.e\	re-
=16	=16	=16	=16	=16	=16	=16	=16	=16	=16
1D	re-	1A	.	.	0ryy	.	.	.	.
.	.	.	.	.	.	.	.	8d\L	.
.	.	.	.	.	.	.	.	8c\J	.
.	.	.	.	.	.	.	.	2d\	.
*	*	*Xlig	*	*	*	*	*	*	*
1AA	-gem	1A	.	qui	.	2r	.	1c#X	-gem
*	*	*	*	*	*	*custos:e	*	*	*
.	.	.	.	.	.	2e\	qui	.	.
!	!	!	!	!	!	!LO:LB:g=original	!	!	!
=17	=17	=17	=17	=17	=17	=17	=17	=17	=17
*	*	*	*	*	*	*xywh-#350:1345,518,4432,1038	*	*	*
*	*	*	*	*	*	*lig	*	*	*
2r	.	1c	.	c(ae)-	0ryy	1e	c(ae)-	2r	.
2C/	qui	.	.	.	.	.	.	2g\	qui
*	*	*lig	*	*	*	*	*	*	*
1G	c(ae)-	1B	.	-lum	.	1d	.	1g	c(ae)-
*	*	*	*	*	*	*Xlig	*	*	*
=18	=18	=18	=18	=18	=18	=18	=18	=18	=18
2C/	-lum	1c	.	.	0ryy	1e	-lum	2g\	-lu(m)
*	*	*	*	*	*	*	*	*custos:a	*
*	*ij	*	*	*	*	*	*	*	*
2C/	qui	.	.	.	.	.	.	2g\	q(ui)
!	!	!	!	!	!	!	!	!	!
*	*	*Xlig	*	*	*	*	*	*	*
*custos:C	*	*	*	*	*	*	*	*	*
!	!	!	!	!	!	!	!	!LO:LB:g=original	!
*	*	*	*	*	*	*	*	*xywh-#163:1372,2295,4505,955	*
0F	c(ae)-	1A	.	ter-	.	2r	.	0a	c(ae)-
.	.	.	.	.	.	2f\	qui	.	.
!LO:LB:g=original	!	!	!	!	!	!	!	!	!
=19	=19	=19	=19	=19	=19	=19	=19	=19	=19
*xywh-#709:1490,3069,4311,980	*	*	*	*	*	*	*	*	*
*	*	*lig	*	*	*	*	*	*	*
.	.	1A	.	-ram-	0ryy	1f	c(ae)-	.	.
1C	-lum	1c	.	.	.	2e\	-lu(m)	2g\	-lu(m)
.	.	.	.	.	.	1E	ter-	2G/	.
*	*Xij	*Xlig	*	*	*	*	*	*	*
=20	=20	=20	=20	=20	=20	=20	=20	=20	=20
!LO:TX:a:t=ſemi	!	!	!	!	!	!	!	!	!
*	*	*lig	*	*	*	*	*	*	*
2r	.	1A	.	.	0ryy	.	.	2r	.
1FF	ter-	.	.	.	.	1C	-ram-	1A	ter-
.	.	1c	.	.	.	.	.	.	.
2FF/	-ram-	.	.	.	.	1F	-q(ue)	2A/	-ram-
*	*	*Xlig	*	*	*	*	*	*	*
=21	=21	=21	=21	=21	=21	=21	=21	=21	=21
*	*	*custos:G	*	*	*	*	*	*	*
1FF	-q(ue)	1A	.	.	0ryy	.	.	2.A/	-q(ue)
*	*	*	*	*	*	*	*ij	*	*
.	.	.	.	.	.	2.F/	ter-	.	.
.	.	.	.	.	.	.	.	4B/	.
!	!	!LO:LB:g=original	!	!	!	!	!	!	!
*	*	*xywh-#526:5832,2958,4497,954	*	*	*	*	*	*	*
*	*	*lig	*	*	*	*	*	*	*
1C	re-	1G	.	-q(ue)	.	.	.	2c/	.
.	.	.	.	.	.	8E/L	.	.	.
.	.	.	.	.	.	8D/J	.	.	.
.	.	.	.	.	.	2E/	-ram-	2.c/	re-
=22	=22	=22	=22	=22	=22	=22	=22	=22	=22
0FF	-git	1A	.	.	0ryy	1F	-q(ue)	.	.
.	.	.	.	.	.	.	.	4B/	.
.	.	.	.	.	.	.	.	4A/	.
.	.	.	.	.	.	.	.	4G/	.
*	*	*Xlig	*	*	*	*	*Xij	*	*
*	*	*lig	*	*	*	*	*	*	*
.	.	1A	.	re-	.	2r	.	2F/	.
.	.	.	.	.	.	2.c\	re-	2A/	.
=23	=23	=23	=23	=23	=23	=23	=23	=23	=23
0r	.	1c	.	.	0ryy	.	.	2.A/	-git
.	.	.	.	.	.	4B\	.	.	.
.	.	.	.	.	.	4A\	.	.	.
.	.	.	.	.	.	4G/	.	4B/	.
*	*	*Xlig	*	*	*	*	*	*	*ij
.	.	1A	.	.	.	2F/	.	4c/	.
.	.	.	.	.	.	.	.	4d/	.
.	.	.	.	.	.	2.A/	.	2e\	.
=24	=24	=24	=24	=24	=24	=24	=24	=24	=24
1E	re	1B#X	.	.	0ryy	.	.	1e	qui
.	.	.	.	.	.	8G/L	.	.	.
.	.	.	.	.	.	8F/J	.	.	.
.	.	.	.	.	.	2G/	.	.	.
2C#X/	git	1A	.	.	.	2A/	-git	2e\	c(ae)-
*	*	*	*	*	*	*custos:B	*	*	*
2D/	in	.	.	.	.	2A/	.	2f\	-lu(m)
!	!	!	!	!	!	!LO:LB:g=original	!	!	!
=25	=25	=25	=25	=25	=25	=25	=25	=25	=25
*	*	*	*	*	*	*xywh-#350:1344,1430,4416,889	*	*	*
2.GG/	ſ(ac)-	1G	.	.	0ryy	4B/	.	4g\	ter-
.	.	.	.	.	.	4A/	.	4d\	-ram-
.	.	.	.	.	.	4B/	.	1g	-q(ue)
4GG/	-cu-	.	.	.	.	4c/	.	.	.
1D	-la	1A	.	.	.	1d	.	.	.
.	.	.	.	.	.	.	.	4f\	re-
.	.	.	.	.	.	.	.	4e\	.
=26	=26	=26	=26	=26	=26	=26	=26	=26	=26
*	*ij	*lig	*	*	*	*	*	*	*
1D	ſ(ae)-	1A	.	-git	0ryy	2.d\	.	2f\	-git
*	*	*	*	*	*	*	*	*custos:g	*
*	*	*	*	*	*	*	*	*	*Xij
.	.	.	.	.	.	.	.	2f\	in
.	.	.	.	.	.	4c/	.	.	.
!	!	!	!	!	!	!	!	!LO:LB:g=original	!
*	*	*	*	*	*	*	*	*xywh-#163:1372,3101,4478,1002	*
2GG/	.	1G	.	.	.	4B/	.	2.g\	ſ(ae)-
.	.	.	.	.	.	4A/	.	.	.
2GG/	-cu-	.	.	.	.	2B/	.	.	.
.	.	.	.	.	.	.	.	4f\	.
*	*	*Xlig	*	*	*	*	*	*	*
=27	=27	=27	=27	=27	=27	=27	=27	=27	=27
*	*	*lig	*	*	*	*	*	*	*
2.C/	.	1G	.	in	0ryy	2G/	.	4e\	.
.	.	.	.	.	.	.	.	4d\	.
.	.	.	.	.	.	1c	in	2e\	.
4C/	-la	.	.	.	.	.	.	.	.
2F\	.	1A	.	.	.	.	.	2c/	.
*	*Xij	*	*	*	*	*	*	*	*
2.F\	in	.	.	.	.	2.A/	ſ(ae)-	1f	-cu-
*	*	*Xlig	*	*	*	*	*	*	*
=28	=28	=28	=28	=28	=28	=28	=28	=28	=28
*	*	*lig	*	*	*	*	*	*	*
.	.	1c	.	ſ(ae)-	0ryy	.	.	.	.
4G\	.	.	.	.	.	4B\	.	.	.
2A\	.	.	.	.	.	2c\	.	2e\	-la
2G\	ſ(ae)-	1d	.	.	.	4B/	.	2g\	in
.	.	.	.	.	.	4c/	.	.	.
*custos:A	*	*	*	*	*	*	*	*	*
2D/	-cu-	.	.	.	.	2.d\	.	2a\	ſ(ae)-
*	*	*Xlig	*	*	*	*	*	*	*
!LO:LB:g=original	!	!	!	!	!	!	!	!	!
=29	=29	=29	=29	=29	=29	=29	=29	=29	=29
*xywh-#709:5823,438,4568,1117	*	*	*	*	*	*	*	*	*
2A\	-la	1A	.	-cu-	0ryy	.	.	1a	-cu-
.	.	.	.	.	.	8c\L	.	.	.
.	.	.	.	.	.	8B\J	.	.	.
2AA/	.	.	.	.	.	2c\	-cu-	.	.
2D/	ſ(ae)-	1A	.	-la	.	2d\	-la	2f#X\	-la
1D	-cu-	.	.	.	.	1A	in	1f#	in
=30	=30	=30	=30	=30	=30	=30	=30	=30	=30
*	*	*lig	*	*	*	*	*	*	*
.	.	1A	.	ſ(ae)-	0ryy	.	.	.	.
2D/	-lo-	.	.	.	.	2.d\	ſ(ac)-	2f#X\	ſ(ae)-
2.G\	-ru(m)	1B	.	.	.	.	.	2g\	.
.	.	.	.	.	.	4c\	.	.	.
.	.	.	.	.	.	4B/	.	2d\	-cu-
4F\	.	.	.	.	.	4A/	.	.	.
*	*	*Xlig	*	*	*	*	*	*	*
=31	=31	=31	=31	=31	=31	=31	=31	=31	=31
*	*	*lig	*	*	*	*	*	*	*
*	*	*	*	*	*	*custos:c	*	*	*
4E\	ſ(ae)-	1c	.	.	0ryy	2G/	.	2e\	-la
4D\	.	.	.	.	.	.	.	.	.
!	!	!	!	!	!	!LO:LB:g=original	!	!	!
*	*	*	*	*	*	*xywh-#350:1339,2282,4437,857	*	*	*
2C/	-cu-	.	.	.	.	1c	.	2e\	in
1.GG	-lo-	1d	.	.	.	.	.	1.g	ſ(ae)-
.	.	.	.	.	.	4B/	.	.	.
.	.	.	.	.	.	4A/	.	.	.
*	*	*Xlig	*	*	*	*	*	*	*
=32	=32	=32	=32	=32	=32	=32	=32	=32	=32
.	.	1d	.	-cu-	0ryy	2B/	.	.	.
2GG/	-ru(m)	.	.	.	.	2B/	-cu-	2g\	-c(u)-
2C/	.	1c	.	-lo-	.	2c/	-la	2e\	-la
2.F\	ſ(ae)-	.	.	.	.	1A	ſe-	1f	ſ(ac)-
=33	=33	=33	=33	=33	=33	=33	=33	=33	=33
*	*	*custos:c	*	*	*	*	*	*	*
.	.	1d	.	.	0ryy	.	.	.	.
4D/	.	.	.	.	.	.	.	.	.
2G\	.	.	.	.	.	1G	-cu-	2d\	-c(u)-
!	!	!LO:LB:g=original	!	!	!	!	!	!	!
*	*	*xywh-#527:1490,524,4277,967	*	*	*	*	*	*	*
2.C/	.	0c	.	.	.	.	.	1e	-lo-
.	.	.	.	.	.	2.c/	-lo-	.	.
4BB/	.	.	.	.	.	.	.	.	.
=34	=34	=34	=34	=34	=34	=34	=34	=34	=34
4AA/	.	.	.	.	0ryy	.	.	1e	-r(um)
4BB/	.	.	.	.	.	4B/	.	.	.
4C/	.	.	.	.	.	1A	.	.	.
4AA/	.	.	.	.	.	.	.	.	.
1E	.	1B	.	.	.	.	.	2r	.
.	.	.	.	.	.	2G/	.	2e\	in
=35	=35	=35	=35	=35	=35	=35	=35	=35	=35
2AA/	.	1A	.	.	0ryy	1A	-rum	2.c/	ſ(ae)-
2.A\	.	.	.	.	.	.	.	.	.
.	.	.	.	.	.	.	.	4d\	.
*	*	*	*	*	*	*	*	*custos:e	*
.	.	1B	.	-rum.	.	2.e\	ſe-	2e\	.
4G\	-cu-	.	.	.	.	.	.	.	.
!	!	!	!	!	!	!	!	!LO:LB:g=original	!
*	*	*	*	*	*	*	*	*xywh-#163:5941,532,4701,1114	*
2G\	-lo-	.	.	.	.	.	.	2.e\	-cu-
.	.	.	.	.	.	4d\	.	.	.
=36	=36	=36	=36	=36	=36	=36	=36	=36	=36
1A	-rum	0c	.	.	0ryy	4c\	.	.	.
.	.	.	.	.	.	4B/	.	4d\	.
.	.	.	.	.	.	2.A/	.	4c\	.
.	.	.	.	.	.	.	.	4B\	-la
2r	.	.	.	.	.	.	.	2A/	­ la
.	.	.	.	.	.	4B/	.	.	.
*custos:A	*	*	*	*	*	*	*	*	*
2A\	ſ(ae)-	.	.	.	.	4c\	.	1e	ſ(ae)-
.	.	.	.	.	.	4d\	.	.	.
!LO:LB:g=original	!	!	!	!	!	!	!	!	!
=37	=37	=37	=37	=37	=37	=37	=37	=37	=37
*xywh-#709:5871,1487,4521,865	*	*	*	*	*	*	*	*	*
4A\	-cu-	[0Al	.	.	0ryy	2e\	-cu-	.	.
4G\	.	.	.	.	.	.	.	.	.
4F\	.	.	.	.	.	1f	-lo-	2a\	-c(u)-
4E\	.	.	.	.	.	.	.	.	.
2D/	.	.	.	.	.	.	.	2.a\	-lo-
!LO:TX:t=P:problem=# below	!	!	!	!	!	!	!	!	!
2C#X/	-lo-	.	.	.	.	2e\	-ru(m)	.	.
.	.	.	.	.	.	.	.	4g\	.
=38	=38	=38	=38	=38	=38	=38	=38	=38	=38
*	*	*	*	*	*	*lig	*	*	*
1D	-rum	0A_	.	.	0ryy	1d	A-	4f\	.
.	.	.	.	.	.	.	.	4e\	.
.	.	.	.	.	.	.	.	2d\	-ru(m).
!LO:N:vis=0	!	!	!	!	!	!	!	!	!
0.AA	.	.	.	.	.	1A	.	1f	.
*	*	*	*	*	*	*Xlig	*	*	*
=39	=39	=39	=39	=39	=39	=39	=39	=39	=39
.	.	0A]	.	.	0ryy	0A	-me(n).	0e	.
=40||	=40||	=40||	=40||	=40||	=40||	=40||	=40||	=40||	=40||
*yyM3/1	*	*yyM3/1	*	*	*yyM3/1	*yyM3/1	*	*yyM3/1	*
!	!	!LO:N:vis=1	!	!	!	!	!	!	!
1%3ryy	.	4G/	punctum	E-	1%3ryy	1%3ryy	.	1%3ryy	.
!	!	!LO:N:vis=1	!	!	!	!	!	!	!
.	.	4A\	punctum	-ruc-	.	.	.	.	.
!	!	!LO:N:vis=1	!	!	!	!	!	!	!
.	.	4c\	punctum	-ta-	.	.	.	.	.
!	!	!LO:N:vis=1	!	!	!	!	!	!	!
.	.	4c,\	punctum	-uit	.	.	.	.	.
!	!	!LO:N:vis=1	!	!	!	!	!	!	!
.	.	4c,\	punctum	cor	.	.	.	.	.
!	!	!LO:N:vis=1	!	!	!	!	!	!	!
.	.	4c\	punctum	me-	.	.	.	.	.
!	!	!LO:N:vis=1	!	!	!	!	!	!	!
.	.	4c,\	punctum	-um	.	.	.	.	.
!	!	!LO:N:vis=1	!	!	!	!	!	!	!
.	.	4c\	punctum	ver-	.	.	.	.	.
!	!	!LO:N:vis=1	!	!	!	!	!	!	!
.	.	4d,\	punctum	-bum	.	.	.	.	.
!	!	!LO:N:vis=1	!	!	!	!	!	!	!
.	.	4d\	punctum	bo-	.	.	.	.	.
*	*	*custos:A	*	*	*	*	*	*	*
!	!	!LO:N:vis=00	!	!	!	!	!	!	!
.	.	2c\	.	-num	.	.	.	.	.
!	!	!LO:LB:g=original	!	!	!	!	!	!	!
.	.	.	.	.	.	.	.	.	.
=41	=41	=41	=41	=41	=41	=41	=41	=41	=41
*yyM2/1	*	*yyM2/1	*	*	*yyM2/1	*yyM2/1	*	*yyM2/1	*
*	*	*xywh-#527:1328,1361,4434,951	*	*	*	*	*	*	*
*	*	*	*	*	*	*xywh-#350:1158,3033,4618,996	*	*	*
!	!	!	!	!	!	!LO:TX:a:i:t=Verſ	!	!LO:TX:a:i:t=Verſus	!
*	*	*	*	*	*	*	*	*	*
1.F	Di-	1A	.	Di-	0ryy	2r	.	1.f	Di-
.	.	.	.	.	.	1A	Di-	.	.
.	.	1c,	.	-co	.	.	.	.	.
2F\	-co	.	.	.	.	2.c/	-co	2f\	-co
=42	=42	=42	=42	=42	=42	=42	=42	=42	=42
2.C/	e-	1c	.	e-	0ryy	.	.	2.e\	.
.	.	.	.	.	.	4B/	.	.	.
.	.	.	.	.	.	2A/	e-	.	.
4D/	-go	.	.	.	.	.	.	4f\	e-
2E\	.	1c,	.	-go	.	2G/	-go	2g\	-go
2F\	.	.	.	.	.	2A/	.	2f\	.
=43	=43	=43	=43	=43	=43	=43	=43	=43	=43
2C/	.	1c	.	o-	0ryy	2.G/	o-	1e	o-
1C	o-	.	.	.	.	.	.	.	.
.	.	.	.	.	.	4F/	-pe-	.	.
.	.	1c	.	-pe-	.	2E/	-ra	2e\	-pe-
4BB/	-pe-	.	.	.	.	1c	.	2e\	-ra
4AA/	.	.	.	.	.	.	.	.	.
=44	=44	=44	=44	=44	=44	=44	=44	=44	=44
1GG	-ra	1d,	.	-ra	0ryy	.	.	1g	.
.	.	.	.	.	.	2B/	me-	.	.
*	*	*lig	*	*	*	*	*	*	*
2C/	.	1c	.	me-	.	2c\	-a	2e\	me-
2.F\	.	.	.	.	.	2.A/	re-	1f	.
=45	=45	=45	=45	=45	=45	=45	=45	=45	=45
.	.	1A	.	.	0ryy	.	.	.	.
4G\	me-	.	.	.	.	4B/	.	.	.
*custos:AA	*	*	*	*	*	*	*	*	*
2A\	-a	.	.	.	.	2.c\	.	2e\	-a
*	*	*	*	*	*	*	*	*custos:c	*
*	*	*Xlig	*	*	*	*	*	*	*
!LO:LB:g=original	!	!	!	!	!	!	!	!	!
*xywh-#709:5865,2316,4563,907	*	*	*	*	*	*	*	*	*
4AA/	re-	1c,	.	-a	.	.	.	4c\	.
*	*	*	*	*	*	*	*	*	*
!	!	!	!	!	!	!	!	!LO:LB:g=original	!
*	*	*	*	*	*	*	*	*xywh-#163:5966,1556,4558,896	*
4BB/	.	.	.	.	.	4B/	.	4d\	.
4C/	.	.	.	.	.	2A/	.	2e\	.
4D/	.	.	.	.	.	.	.	.	.
=46	=46	=46	=46	=46	=46	=46	=46	=46	=46
*	*	*lig	*	*	*	*	*	*	*
4E\	.	1B	.	re-	0ryy	4G/	.	2e\	re-
4F\	.	.	.	.	.	4A/	.	.	.
1G	.	.	.	.	.	4B\	.	1d	-gi
*	*	*	*	*	*	*custos:d	*	*	*
.	.	.	.	.	.	4c\	.	.	.
!	!	!	!	!	!	!LO:LB:g=original	!	!	!
*	*	*	*	*	*	*xywh-#350:5805,476,4602,1145	*	*	*
.	.	1G	.	.	.	4d\	.	.	.
.	.	.	.	.	.	4c\	.	.	.
2GG/	.	.	.	.	.	2.B/	.	2g\	o-
*	*	*Xlig	*	*	*	*	*	*	*
=47	=47	=47	=47	=47	=47	=47	=47	=47	=47
*	*	*lig	*	*	*	*	*	*	*
2D\	.	1A	.	-gi.	0ryy	.	.	2f\	.
.	.	.	.	.	.	4A/	.	.	.
2F\	.	.	.	.	.	1A	.	2d\	-pe-
1E	.	1B	.	.	.	.	.	2.e\	-ra
.	.	.	.	.	.	2G#X/	.	.	.
.	.	.	.	.	.	.	.	4d\	.
!	!	!	!	!	!	!LO:TX:t=P:problem=# below	!	!	!
*	*	*Xlig	*	*	*	*	*	*	*
=48	=48	=48	=48	=48	=48	=48	=48	=48	=48
0AA	-gi	0c	.	.	0ryy	2A/	-gi	4c\	.
.	.	.	.	.	.	.	.	4B\	.
.	.	.	.	.	.	2.c/	re-	2A/	me-
.	.	.	.	.	.	.	.	1e	-a
.	.	.	.	.	.	4B/	.	.	.
.	.	.	.	.	.	4A/	.	.	.
.	.	.	.	.	.	4G/	.	.	.
=49	=49	=49	=49	=49	=49	=49	=49	=49	=49
0D	re-	00A	.	.	0ryy	2.F/	.	0d	re-
.	.	.	.	.	.	4G/	.	.	.
.	.	.	.	.	.	1A	-gi.	.	.
=50	=50	=50	=50	=50	=50	=50	=50	=50	=50
0AA	-gi	.	.	.	0ryy	0A	.	0c#X	-gi.
==	==	==	==	==	==	==	==	==	==
*-	*-	*-	*-	*-	*-	*-	*-	*-	*-
!!!system-decoration: [(s1,s2,s3,s4,s5)]
!!!RDF**kern: l = terminal long
!!!ENC: Mateusz Solarz
!!!END: 2022-02-14
!!!ENC: Natalia Wrzos
!!!END: 2022-03-20
!!!ENC-iiif: Jan Barakat
!!!END-iiif: 2022-08-31
!!!YEC: Copyright 2022 Narodowy Instytut Fryderyka Chopina (https://polishscores.org)
!!!YEM: License CC-BY-4.0 (https://creativecommons.org/licenses/by/4.0)
